icons/external-link.svg

<svg width="24" height="24" viewBox="0 0 24 24" fill="none" xmlns="http://www.w3.org/2000/svg">
<path fill-rule="evenodd" clip-rule="evenodd" d="M14 5C13.4477 5 13 4.55228 13 4C13 3.44772 13.4477 3 14 3H20C20.5523 3 21 3.44772 21 4V10C21 10.5523 20.5523 11 20 11C19.4477 11 19 10.5523 19 10V6.41421L11.7071 13.7071C11.3166 14.0976 10.6834 14.0976 10.2929 13.7071C9.90237 13.3166 9.90237 12.6834 10.2929 12.2929L17.5858 5H14ZM3 7C3 6.44772 3.44772 6 4 6H9C9.55228 6 10 6.44772 10 7C10 7.55228 9.55228 8 9 8H5V19H16V15C16 14.4477 16.4477 14 17 14C17.5523 14 18 14.4477 18 15V20C18 20.5523 17.5523 21 17 21H4C3.44772 21 3 20.5523 3 20V7Z" fill="black"/>
</svg>

<svg
  width="24"
  height="24"
  viewBox="0 0 24 24"
  xmlns="http://www.w3.org/2000/svg"
>
  <path
    fill-rule="evenodd"
    clip-rule="evenodd"
    d="M14 5a1 1 0 1 1 0-2h6a1 1 0 0 1 1 1v6a1 1 0 1 1-2 0V6.414l-7.293 7.293a1 1 0 0 1-1.414-1.414L17.586 5H14zM3 7a1 1 0 0 1 1-1h5a1 1 0 0 1 0 2H5v11h11v-4a1 1 0 1 1 2 0v5a1 1 0 0 1-1 1H4a1 1 0 0 1-1-1V7z"
  />
</svg>
